!!!!SEGMENT: pl-sa--481-a-viii-121--007_anonim--la-bellone.krn
!!!cenid: 18xx:378
!!!COM: Anonim
!!!COM-rismID: pe30004985
!!!CDT:
!!!CNT:
!!!OTL: La Bellone
!!!PDT:
!!!AGN: Secular
!!!SMS-siglum: PL-SA
!!!SMS-shelfmark: 481/A VIII 121
!!!SMS-shelfwork: 007 W
!!!SMS-variant:
!!!SMS-altvar:
!!!NIFC-rismSourceID: 1001070456
!!!NIFC-islandoraID:
!!!URL-pdf-islandora:
!!!URL-scan: https://bc.bdsandomierz.pl/dlibra/publication/1212/edition/1171/content @EN{Scan in the Sandomierz Diocese Digital Library} @PL{Skany w portalu Cyfrowa Biblioteka Diecezjalna w Sandomierzu}
!!!ONB-nifc: Str. 6, s. 1-3
!!!AIN: 1 piano
!!!key:
**kern	**kern
*part1	*part1
*staff2	*staff1
*Ipiano	*Iempty
*I"Pianoforte	*
*I'P-no	*
*clefF4	*clefG2
*k[b-]	*k[b-]
*F:	*F:
*M2/4	*M2/4
*>[A,B,A]	*>[A,B,A]
*>A	*>A
!	!LO:TX:b:i:t=La Bellone
8r	16cc\LL
.	16b-\JJ
!LO:LB:g=original	!LO:LB:g=original
=1	=1
8F\L	8a/L
8c\	8f/
8A\	8a/
8c\J	8cc/J
=2	=2
*rep	*
8F\L	16ff\LL
.	16ee\
8c\	16ff\
.	16gg\JJ
8A\	8ff\L
8c\J	16ee\L
.	16gg\JJ
*Xrep	*
=3	=3
8cL 8G 8E\	8bb-\L
8cJ 8G 8E\	8bb-\J
4c 4G 4E\	8bb-\L
.	16gg\L
.	16ee\JJ
=4	=4
8cL 8A 8F\	16ff\LL
.	16ee\
8cJ 8A 8F\	16ff\
.	16gg\JJ
4c 4A 4F\	8aa\L
.	16cc\L
.	16b-\JJ
=5	=5
8F\L	8a/L
8c\	8f/
8A\	8a/
8c\J	8cc/J
=6	=6
*rep	*
8F\L	16ff\LL
.	16ee\
8c\	16ff\
.	16gg\JJ
8A\	8ff\L
8c\J	16gg\L
.	16ee\JJ
*Xrep	*
=7	=7
8cL 8G 8E\	8bb-\L
8cJ 8G 8E\	8bb-\J
4c 4G 4E\	8bb-\L
.	16gg\L
.	16ee\JJ
=	=
8B-L 8C\	4gg\
8B- 8C\	.
8AJ 8F\	8ff\
=8||;	=8||
8r	16cc\LL
.	16b-\JJ
=9	=9
!LO:TX:a:t=P:problem=mixed beam	!
8F\L	8ccL 8a/
8F\	8f/
8AA/	8a/
8AA/J	8cc/J
=10	=10
*tremolo	*
8BB-/L	8.dd\L
8BB-/	.
.	16cc\Jk
8BB-/	16b-/LL
.	16a/
8BB-/J	16g/
.	16f/JJ
*Xtremolo	*
=11	=11
4C/	8e/L
.	8c/
4r	8e/
.	8g/J
=12	=12
!LO:TX:a:t=P:problem=mixed beam	!
8F\L	8a\L
8F\	16cc\L
.	16a\JJ
8AA/	8f/L
8AA/J	8c/J
=13	=13
8BB-\L	16d/LL
.	16f/
8C\	16e/
.	16g/JJ
8D\	16f/LL
.	16a/
8E\J	16g/
.	16b-/JJ
=14	=14
8F\L	16a\LL
.	16cc\
8G\	16b-\
.	16dd\JJ
8A\J	8cc\L
8r	16ff\L
.	16ee\JJ
!LO:LB:g=original	!LO:LB:g=original
=15	=15
*Xtuplet	*
6B-\	16dd\LL
.	16cc\
.	16b-\
6B-\	.
.	16a\JJ
.	16g/LL
.	16f/
6Bn\	.
.	16e/
.	16f/JJ
=16	=16
12c\L	4e/
12G\	.
12C\J	.
!LO:TX:a:t=[segno]:problem=znak segno na kresce taktowej	!LO:TX:a:t=[segno]:problem=znak segno na kresce taktowej
=17||	=17||
*>B	*>B
*k[b-]	*k[b-]
*M2/4	*M2/4
!	!LO:TX:b:i:t=Mineur
8r	8dd
=18	=18
8FL 8D	8.ffL
8AJ	.
.	16ddJk
*rep	*
8FL 8D	8.aL
8AJ	.
.	16ddJk
*Xrep	*
=19	=19
8FL 8D	8.ffL
8AJ	.
.	16ddJk
8DL	8aL
8GJ	16gL
.	16b-JJ
=20	=20
4A	8aL
.	8g
4AA	8f
.	8eJ
=21	=21
8DL	16fLL
.	16e
8AAJ	16f
.	16gJJ
4DD	8.aL
.	16ddJk
=22	=22
8FL 8D	16ffLL
.	16ee
8AJ	16ff
.	16ddJJ
*rep	*
8FL 8D	8.aL
8AJ	.
.	16ddJk
*Xrep	*
=23	=23
8FL 8D	16ffLL
.	16ee
8AJ	16ff
.	16ddJJ
8DL	8aL
8GJ	16gL
.	16b-JJ
=24	=24
4G	8aL
.	8g
4AA	8f
.	8eJ
=25	=25
8DL	4.d
8AA	.
!	!LO:TX:b:i:t=Da Capo.
8DDJ	.
!LO:TX:a:t=[segno]:problem=znak segno na kresce taktowej	!LO:TX:a:t=[segno]:problem=znak segno na kresce taktowej
==	==
*-	*-
!!!system-decoration: s1,s2
!!!ENC: Marta Lawrence
!!!END: 2020-11-19
!!!ENC: Tomasz Grochalski
!!!END: 2020-06-14
!!!YEC: Copyright 2022 Narodowy Instytut Fryderyka Chopina (https://polishscores.org)
!!!YEM: Licence CC BY 4.0 (https://creativecommons.org/licenses/by/4.0)
